images/ic_sar.svg

<svg width="20" height="20" viewBox="0 0 20 20" fill="none" xmlns="http://www.w3.org/2000/svg">
<g clip-path="url(#clip0)">
<path d="M15.9774 4.80668C16.1746 4.80668 16.372 4.73246 16.5239 4.58356L19.4137 1.77168C19.7219 1.46985 19.7269 0.975315 19.4251 0.667112C19.1232 0.358948 18.6287 0.35387 18.3206 0.655706L15.4308 3.46758C15.1226 3.76942 15.1175 4.26395 15.4194 4.57215C15.5724 4.72832 15.7748 4.80668 15.9774 4.80668Z" fill="#3D3D3D"/>
<path d="M13.8221 2.76589C13.8643 2.77269 13.9061 2.77597 13.9474 2.77597C14.324 2.77597 14.6557 2.50292 14.7176 2.11917L14.9129 0.908505C14.9816 0.482607 14.692 0.0817475 14.2661 0.0130365C13.84 -0.0557525 13.4394 0.233896 13.3706 0.659755L13.1754 1.87042C13.1067 2.29624 13.3962 2.69718 13.8221 2.76589Z" fill="#3D3D3D"/>
<path d="M14.9718 5.1959L14.8796 5.10379C12.3102 2.5343 9.93582 2.10516 9.83601 2.08875C9.58769 2.04785 9.33496 2.12922 9.15695 2.30719L8.16109 3.31703C8.14621 3.33192 8.13195 3.34742 8.11832 3.36344C6.73617 4.98918 6.27449 6.76512 6.73785 8.6559L0.682229 14.6691C0.243245 15.1055 0.000901167 15.6867 2.73002e-06 16.3057C-0.000934769 16.9247 0.239612 17.5066 0.677268 17.9444L2.05422 19.3213C2.50457 19.7717 3.09703 19.997 3.68953 19.997C4.27953 19.997 4.86953 19.7735 5.3193 19.3265L8.95129 15.7102C9.25738 15.4063 9.2591 14.9117 8.95515 14.6056C8.65121 14.2995 8.15668 14.2978 7.85054 14.6018L4.21828 18.2183C3.92582 18.509 3.45047 18.5083 3.15883 18.2167L1.78192 16.8398C1.63988 16.6978 1.56184 16.5089 1.56215 16.3081C1.56246 16.1072 1.64106 15.9186 1.78324 15.7773L7.43394 10.1662L10.0599 12.7922C10.0609 12.7931 10.0618 12.794 10.0627 12.795L10.0747 12.8069C10.0828 12.815 10.0915 12.822 10.0999 12.8297C10.1067 12.8359 10.1133 12.8423 10.1204 12.8482C10.2014 12.9175 10.293 12.9676 10.3897 12.9983C11.2204 13.3408 12.0309 13.5123 12.8186 13.5123C14.1908 13.5123 15.4938 12.9932 16.7122 11.9573C16.7282 11.9437 16.7437 11.9294 16.7586 11.9145L17.7738 10.9187C17.9517 10.7407 18.033 10.488 17.9923 10.2397C17.9758 10.1398 17.5412 7.76543 14.9718 5.1959ZM11.0626 11.5857L8.48992 9.01301C7.97062 7.707 8.00203 6.53547 8.59879 5.40625L14.6693 11.4768C13.5401 12.0735 12.3687 12.105 11.0626 11.5857ZM15.9328 10.531L9.54457 4.14274L9.94578 3.74153C10.622 3.95399 12.143 4.57637 13.7751 6.20844L13.8672 6.30059C15.4993 7.93262 16.1216 9.45364 16.3341 10.1298L15.9328 10.531Z" fill="#3D3D3D"/>
<path d="M19.9836 5.74189C19.8962 5.31946 19.4827 5.04786 19.0605 5.13525L17.9279 5.36958C17.5054 5.45696 17.2339 5.87028 17.3213 6.29275C17.3977 6.66181 17.7227 6.91571 18.0854 6.91571C18.1378 6.91571 18.191 6.9104 18.2444 6.89939L19.3769 6.66505C19.7995 6.57763 20.0711 6.16435 19.9836 5.74189Z" fill="#3D3D3D"/>
<path d="M7.10641 11.8699L5.97387 12.9634C5.66887 13.2684 5.66887 13.7629 5.97387 14.068C6.12641 14.2205 6.32629 14.2968 6.52621 14.2968C6.72614 14.2968 6.92606 14.2205 7.07856 14.068L8.2111 12.9745C8.5161 12.6695 8.5161 12.1749 8.2111 11.8699C7.90606 11.5649 7.41145 11.5649 7.10641 11.8699Z" fill="#3D3D3D"/>
</g>
<defs>
<clipPath id="clip0">
<rect width="20" height="20" fill="white"/>
</clipPath>
</defs>
</svg>

<svg xmlns="http://www.w3.org/2000/svg" fill="none" viewBox="0 0 20 20"><g clip-path="url(#A)" fill="#3d3d3d"><path d="M15.977 4.807a.78.78 0 0 0 .546-.223l2.9-2.812A.78.78 0 1 0 18.32.656l-2.9 2.812a.78.78 0 0 0 .547 1.339zm-2.155-2.04a.76.76 0 0 0 .125.01.78.78 0 0 0 .77-.657l.195-1.2a.78.78 0 0 0-1.541-.26l-.195 1.2a.78.78 0 0 0 .647.895zm1.15 2.43l-.092-.092c-2.57-2.57-4.944-3-5.044-3.015a.78.78 0 0 0-.679.218l-.996 1-.043.046C6.736 5 6.275 6.765 6.738 8.656L.682 14.67c-.44.436-.68 1.018-.682 1.637a2.3 2.3 0 0 0 .677 1.64l1.377 1.377c.45.45 1.043.676 1.635.676a2.3 2.3 0 0 0 1.63-.67l3.633-3.63a.78.78 0 1 0-1.101-1.108l-3.63 3.626a.75.75 0 0 1-1.059-.002l-1.38-1.376c-.142-.142-.22-.33-.22-.532a.73.73 0 0 1 .22-.53l5.65-5.6 2.685 2.683c.08.07.173.12.27.15.83.342 1.64.514 2.43.514 1.372 0 2.675-.52 3.894-1.555l.046-.043 1.015-.996a.78.78 0 0 0 .218-.679c-.016-.1-.45-2.474-3.02-5.044zm-3.9 6.4L8.5 9.013c-.52-1.306-.488-2.477.1-3.607l6.07 6.07c-1.13.597-2.3.628-3.607.1zm4.87-1.055l-6.397-6.4.4-.4c.676.212 2.197.835 3.83 2.467l.092.092c1.632 1.632 2.254 3.153 2.467 3.83l-.4.4zm4.052-4.8a.78.78 0 0 0-.923-.607l-1.133.234a.78.78 0 0 0-.607.923.78.78 0 0 0 .764.623c.052 0 .106-.005.16-.016l1.133-.234a.78.78 0 0 0 .607-.923zM7.106 11.87l-1.132 1.094a.78.78 0 1 0 1.104 1.104l1.133-1.093a.78.78 0 1 0-1.105-1.105z"/></g><defs><clipPath id="A"><path fill="#fff" d="M0 0h20v20H0z"/></clipPath></defs></svg>
